build/images/svg/fracture2.svg

<svg width="260" height="84" viewBox="0 0 260 84" fill="none" xmlns="http://www.w3.org/2000/svg">
<g clip-path="url(#clip0_513_691)">
<path d="M5.97355 82.7868C5.22232 83.564 4.21534 83.9987 3.16703 83.9985H0.392578L5.60448 78.4602C6.03984 77.9971 6.55678 77.6299 7.12575 77.3793C7.69472 77.1288 8.30457 76.9999 8.92043 77H11.5567L5.97355 82.7868ZM18.7543 77H16.1181C15.5022 77 14.8924 77.129 14.3234 77.3795C13.7545 77.63 13.2375 77.9972 12.8021 78.4602L7.58878 84H10.3632C11.4116 84.0004 12.4186 83.5656 13.1698 82.7883L18.7543 77ZM25.9505 77H23.3143C22.6984 77 22.0886 77.129 21.5196 77.3795C20.9507 77.63 20.4337 77.9972 19.9983 78.4602L14.785 84H17.5566C18.6049 84.0004 19.612 83.5656 20.3631 82.7883L25.9505 77ZM33.1467 77H30.5105C29.8946 77 29.2848 77.129 28.7158 77.3795C28.1469 77.63 27.6299 77.9972 27.1945 78.4602L21.9812 84H24.7549C25.8033 84.0004 26.8103 83.5656 27.5614 82.7883L33.1467 77ZM40.3429 77H37.7067C37.0908 76.9999 36.481 77.1288 35.912 77.3793C35.343 77.6299 34.8261 77.9971 34.3907 78.4602L29.1724 84H31.9461C32.9945 84.0004 34.0015 83.5656 34.7527 82.7883L40.3429 77ZM47.5391 77H44.9029C44.287 76.9999 43.6772 77.1288 43.1082 77.3793C42.5392 77.6299 42.0223 77.9971 41.5869 78.4602L36.3672 84H39.1409C40.1893 84.0004 41.1963 83.5656 41.9474 82.7883L47.5391 77ZM54.7353 77H52.0991C51.4812 76.9982 50.869 77.1263 50.2979 77.3768C49.7267 77.6274 49.2078 77.9956 48.771 78.4602L43.562 84H46.3364C47.3847 84.0002 48.3917 83.5655 49.1429 82.7883L54.7353 77ZM61.9315 77H59.2953C58.6774 76.9982 58.0652 77.1263 57.4941 77.3768C56.9229 77.6274 56.404 77.9956 55.9672 78.4602L50.7567 84H53.5312C54.5795 84.0002 55.5865 83.5655 56.3377 82.7883L61.9315 77ZM69.1277 77H66.4915C65.8736 76.9983 65.2615 77.1264 64.6903 77.377C64.1192 77.6276 63.6003 77.9957 63.1634 78.4602L57.9515 84H60.726C61.7743 84.0002 62.7812 83.5655 63.5325 82.7883L69.1277 77ZM76.3239 77H73.6877C73.0698 76.9982 72.4576 77.1262 71.8864 77.3768C71.3153 77.6274 70.7964 77.9956 70.3596 78.4602L65.1463 84H67.9207C68.9691 84.0004 69.9761 83.5656 70.7273 82.7883L76.3239 77ZM83.5201 77H80.8839C80.266 76.9982 79.6538 77.1262 79.0826 77.3768C78.5115 77.6274 77.9926 77.9956 77.5558 78.4602L72.3439 84H75.1177C76.166 84.0004 77.173 83.5656 77.9242 82.7883L83.5201 77ZM90.7163 77H88.0801C87.4622 76.9982 86.85 77.1263 86.2789 77.3768C85.7077 77.6274 85.1888 77.9956 84.752 78.4602L79.5366 84H82.3103C83.3586 84.0004 84.3657 83.5656 85.1168 82.7883L90.7163 77ZM97.9125 77H95.2763C94.6604 76.9999 94.0506 77.1288 93.4816 77.3793C92.9126 77.6299 92.3957 77.9971 91.9603 78.4602L86.7484 84H89.5229C90.571 84.0004 91.5778 83.5656 92.3287 82.7883L97.9125 77ZM105.109 77H102.472C101.857 76.9999 101.247 77.1288 100.678 77.3793C100.109 77.6299 99.5919 77.9971 99.1565 78.4602L93.9446 84H96.7191C97.7674 84.0002 98.7744 83.5655 99.5256 82.7883L105.109 77ZM112.305 77H109.669C109.053 77 108.443 77.1289 107.874 77.3794C107.305 77.63 106.788 77.9972 106.353 78.4602L101.141 84H103.915C104.964 84.0002 105.971 83.5655 106.722 82.7883L112.305 77ZM119.501 77H116.865C116.249 77 115.639 77.129 115.07 77.3795C114.501 77.63 113.984 77.9972 113.549 78.4602L108.337 84H111.111C112.16 84.0002 113.167 83.5655 113.918 82.7883L119.501 77ZM126.697 77H124.061C123.445 76.9999 122.836 77.1289 122.267 77.3794C121.698 77.6299 121.181 77.9972 120.746 78.4602L115.51 84H118.285C119.333 84.0004 120.34 83.5656 121.091 82.7883L126.697 77ZM133.894 77H131.257C130.641 76.9999 130.032 77.1288 129.463 77.3793C128.894 77.6299 128.377 77.9971 127.941 78.4602L122.729 84H125.503C126.552 84.0004 127.559 83.5656 128.31 82.7883L133.894 77ZM141.09 77H138.453C137.838 76.9999 137.228 77.1288 136.659 77.3793C136.09 77.6299 135.573 77.9971 135.138 78.4602L129.926 84H132.699C133.748 84.0004 134.755 83.5656 135.506 82.7883L141.09 77ZM148.286 77H145.65C145.034 76.9999 144.424 77.1288 143.855 77.3793C143.286 77.6299 142.769 77.9971 142.334 78.4602L137.122 84H139.896C140.944 84.0004 141.951 83.5656 142.702 82.7883L148.286 77ZM155.482 77H152.846C152.23 77 151.62 77.1289 151.051 77.3794C150.482 77.63 149.965 77.9972 149.53 78.4602L144.318 84H147.092C148.141 84.0002 149.148 83.5655 149.899 82.7883L155.482 77Z" fill="white"/>
</g>
<path d="M259.001 70V68.7932L258.147 69.6464L247.143 80.6464L246.289 81.5H247.496H258.501H259.001V81V70Z" fill="white" stroke="white"/>
<ellipse cx="186.97" cy="2.5" rx="2.50104" ry="2.5" fill="white"/>
<path d="M156.957 81H237.991L259 60V2.5H188.47" stroke="white"/>
<defs>
<clipPath id="clip0_513_691">
<rect width="155.065" height="7" fill="white" transform="translate(0.392578 77)"/>
</clipPath>
</defs>
</svg>

<svg width="260" height="84" fill="none" xmlns="http://www.w3.org/2000/svg"><g clip-path="url(#clip0_513_691)"><path d="M5.974 82.787a3.902 3.902 0 01-2.807 1.212H.393l5.211-5.539c.436-.463.953-.83 1.522-1.08A4.448 4.448 0 018.92 77h2.637l-5.583 5.787zM18.754 77h-2.636a4.45 4.45 0 00-1.795.38 4.68 4.68 0 00-1.52 1.08L7.588 84h2.774a3.9 3.9 0 002.807-1.212L18.754 77zm7.197 0h-2.637a4.45 4.45 0 00-1.794.38 4.68 4.68 0 00-1.522 1.08L14.785 84h2.772a3.9 3.9 0 002.806-1.212L25.951 77zm7.196 0H30.51a4.45 4.45 0 00-1.795.38 4.68 4.68 0 00-1.521 1.08L21.98 84h2.774a3.9 3.9 0 002.806-1.212L33.147 77zm7.196 0h-2.636c-.616 0-1.226.129-1.795.38a4.68 4.68 0 00-1.521 1.08L29.172 84h2.774a3.9 3.9 0 002.807-1.212L40.343 77zm7.196 0h-2.636c-.616 0-1.226.129-1.795.38a4.68 4.68 0 00-1.521 1.08L36.367 84h2.774a3.9 3.9 0 002.806-1.212L47.54 77zm7.196 0H52.1a4.448 4.448 0 00-1.801.377c-.571.25-1.09.619-1.527 1.083L43.562 84h2.774a3.902 3.902 0 002.807-1.212L54.735 77zm7.197 0h-2.637a4.448 4.448 0 00-1.8.377 4.675 4.675 0 00-1.528 1.083L50.757 84h2.774a3.902 3.902 0 002.807-1.212L61.93 77zm7.196 0h-2.636a4.449 4.449 0 00-1.802.377c-.57.25-1.09.619-1.527 1.083L57.952 84h2.774a3.902 3.902 0 002.806-1.212L69.129 77zm7.196 0h-2.636a4.447 4.447 0 00-1.802.377c-.57.25-1.09.619-1.526 1.083L65.146 84h2.775a3.9 3.9 0 002.806-1.212L76.324 77zm7.196 0h-2.636a4.447 4.447 0 00-1.801.377c-.572.25-1.09.619-1.527 1.083L72.344 84h2.774a3.9 3.9 0 002.806-1.212L83.52 77zm7.196 0H88.08a4.448 4.448 0 00-1.801.377c-.571.25-1.09.619-1.527 1.083L79.537 84h2.773a3.9 3.9 0 002.807-1.212l5.6-5.788zm7.197 0h-2.637c-.616 0-1.225.129-1.794.38a4.68 4.68 0 00-1.522 1.08L86.748 84h2.775a3.899 3.899 0 002.806-1.212L97.913 77zm7.196 0h-2.637c-.615 0-1.225.129-1.794.38a4.68 4.68 0 00-1.522 1.08L93.945 84h2.774a3.902 3.902 0 002.807-1.212L105.109 77zm7.196 0h-2.636c-.616 0-1.226.129-1.795.38a4.675 4.675 0 00-1.521 1.08L101.141 84h2.774a3.901 3.901 0 002.807-1.212L112.305 77zm7.196 0h-2.636c-.616 0-1.226.129-1.795.38a4.673 4.673 0 00-1.521 1.08L108.337 84h2.774a3.901 3.901 0 002.807-1.212L119.501 77zm7.196 0h-2.636c-.616 0-1.225.129-1.794.38a4.673 4.673 0 00-1.521 1.08L115.51 84h2.775a3.9 3.9 0 002.806-1.212L126.697 77zm7.197 0h-2.637c-.616 0-1.225.129-1.794.38a4.688 4.688 0 00-1.522 1.08L122.729 84h2.774a3.9 3.9 0 002.807-1.212L133.894 77zm7.196 0h-2.637c-.615 0-1.225.129-1.794.38a4.674 4.674 0 00-1.521 1.08L129.926 84h2.773a3.9 3.9 0 002.807-1.212L141.09 77zm7.196 0h-2.636a4.45 4.45 0 00-1.795.38 4.674 4.674 0 00-1.521 1.08L137.122 84h2.774a3.9 3.9 0 002.806-1.212L148.286 77zm7.196 0h-2.636c-.616 0-1.226.129-1.795.38a4.675 4.675 0 00-1.521 1.08L144.318 84h2.774a3.901 3.901 0 002.807-1.212L155.482 77z" fill="#fff"/></g><path d="M259.001 70v-1.207l-.854.853-11.004 11-.854.854h12.712V70z" fill="#fff" stroke="#fff"/><ellipse cx="186.97" cy="2.5" rx="2.501" ry="2.5" fill="#fff"/><path d="M156.957 81h81.034L259 60V2.5h-70.53" stroke="#fff"/><defs><clipPath id="clip0_513_691"><path fill="#fff" transform="translate(.393 77)" d="M0 0h155.065v7H0z"/></clipPath></defs></svg>
